X: 40140
T: Tiger's First Bird
R: mazurka
M: 3/4
K: Gdorian
dG FG DG|f/e/d ec =Bc|dG cd Fc|dE FA cf|dG FG DG|
f/e/d ec =Bc|1 dB eA fG|gF fE eF:|2 dB eA fB|eA dB ^cd||
|:gG BG dG|aA dA fA|gG fB eA|dG cA DA|
Gg dG cd|aA dA fA|gf dg fd|1 dc Ad ef:|2 dc A_e dc||

